X: 1
T: Lemonville, The
M: 6/8
L: 1/8
R: jig
K: Dmaj
f2g|aba afd|fgf fdA|ded dAF|G3 e2f|
gag gec|efe ecA|cBA gfe|f3 f2g|
aba afd|fgf fdA|ded def|B3 e2f|
gag gec|efe ecA|cBA gfe|d3 d2A|
|:FGA ABc|ded def|gag gfe|B3 B2d|
cea aed|cea aed|cea gfe|1fdB A2G:|2d3 z3||
